X:1
T:Regina Caeli (I)
T:Regina Caeli (I)
T:Antoine Busnois (1430-1492)
T:2009 by Paul R Marchesano. May be freely copied for nonprofit use.
T:2009 by Paul R Marchesano. May be freely copied for nonprofit use.
T:2009 by Paul R Marchesano. May be freely copied for nonprofit use.
T:2009 by Paul R Marchesano. May be freely copied for nonprofit use.
T:2009 by Paul R Marchesano. May be freely copied for nonprofit use.
T:2009 by Paul R Marchesano. May be freely copied for nonprofit use.
T:2009 by Paul R Marchesano. May be freely copied for nonprofit use.
T:2009 by Paul R Marchesano. May be freely copied for nonprofit use.
T:2009 by Paul R Marchesano. May be freely copied for nonprofit use.
T:2009 by Paul R Marchesano. May be freely copied for nonprofit use.
T:2009 by Paul R Marchesano. May be freely copied for nonprofit use.
T:2009 by Paul R Marchesano. May be freely copied for nonprofit use.
T:2009 by Paul R Marchesano. May be freely copied for nonprofit use.
T:2009 by Paul R Marchesano. May be freely copied for nonprofit use.
C:Antoine Busnois
C:(1430-1492)
Z:2009 by Paul R Marchesano. May be freely copied for nonprofit use.
%%score [ 1 2 3 4 ]
L:1/8
Q:1/4=80
M:3/2
K:G
V:1 treble nm="Soprano" snm="S"
V:2 treble nm="Alto" snm="A"
V:3 treble-8 nm="Tenor" snm="T"
V:4 bass nm="Bass" snm="B"
V:1
 G6 A2 B4 | B4 c6 B2 | B4 A2 c4 B2 | ^G12- | G4 z4 z4 | c8 B4 | c4 B2 G2 A4 | G4 A2 B4 A2 | %8
w: Re- * gi-|na _ _|cæ- * * *|li|_|læ- ta-|||
 B6 G2 A4 | G2 d3 c B3 A G2 | F2 f4 d4 ^c2 | d6 B2 c2 d2 | B2 A2 B2 AG F3 G | A2 B3 A G3 FFE | %14
w: ||||||
 G12 | z4 z4 d4- | d2 c2 B2 B4 AG | F4 z4 F4 | G6 A2 B2 c2 | d2 c2 BA B4 A2 | B6 G2 G4 | z4 z4 A4 | %22
w: re|al-|||||* * le-||
 B4 A2 d4 cB | A4 z2 G4 E2 | F2 A3 G G4 F2 | G2 d4 c2 B3 A | A6 F2 G2 A2 | F2 B3 cBA/G/ F3 E | %28
w: |||* lu- * * *|||
 G8 z4 | A4 F2 D2 E2 G2 | F2 A4 F2 G2 B2- | BA G4 E2 F4 | G4 z4 B3 c | d4 c2 B2 A4 | G8 z4 | z12 | %36
w: ia,|al- * * * *|* le- * * *|||lu- * * *|ia,||
 z12 | z12 | z12 | z12 | d6 cB A3 B | c2 d2 e6 d2 | c2 =f3 e d4 ^c2 | d6 cB cBAG | F2 z2 z4 z4 | %45
w: ||||Qui- * * * *|||a _ _ _ _ _ _|_|
 z12 | A8 A2 B2 | c2 Bc d2 B4 A2 | B6 A2 G4 | F4 A8 | B12 | z2 B4 A2 B2 d2 | c2 A4 =F2 G4 | %53
w: |quem me- *|* * * * ru- *|i- * *|sti _|_|por- * * *|ta- * * *|
 F4 D4 A4- | A2 G4 F2 E4 | D4 z4 D4- | D4 E4 F4 | G4 A6 F2- | FD D2 z2 G4 A2 | F4 f6 e2 | %60
w: ||re, al-||le- * *||lu- * *|
 d2 f3 e d4 ^c2 | d4 G2 c3 BAG | F12 | d12 |[M:2/2] c4 d4 | e4 d2 d2- | d^ccB d4 | z4 d4 | G4 A4 | %69
w: |ia. _ _ _ _ _|_||Iam sur-|re- * *|* * * * xit|si-|cut di-|
[M:3/2] G4 c4 B4 |[M:2/2] A3 G E4 | D2 G4 FE | G3 F D2 G2- | G2 A4 GA |[M:2/4] B2 d2 | c2 e2- | %76
w: xit, al- *|le- * *||||||
 ed/c/ dB- |[M:3/4] BA/B/ cB/c/ BA/G/ | FG A F2 E/F/ |[M:2/2] G8 | z4 d4 | c2 e4 d2 | c2 A2 d4 | %83
w: ||lu- * * * * *|ia,|al-||le- * *|
 c2 =f3 e d2- | d2 ^c2 d4 | z4 A4 | B4 G2 A2 | B2 A2 G2 F2 | A2 GF E2 D x | F8 | E4 z2 B2- | %91
w: |||||||* lu-|
 B2 c3 BAG | F3 G AG/A/ B2 | AG G3 F2 E | G8 | z8 | z4 x4 | z8 | z8 | z8 | z4 A4- | A2 B2 c2 d2 | %102
w: |||ia.||||||De-||
 e2 f3 d e2- | ed d2 ^c c2 B | d6 =cB | A8 |[M:2/4] d4 | d2 c2 | ce>dd- | d^c d2 | c2 A2 | %111
w: ||um, _ _|_|al-|le- *||||
 z B A>G | E2 F2 | G2 z2 | FG/A/ A/G/4F/<E/D/4 | DF>GA- | A/G/F/E/ EA | B d2 c | B>A GA- | %119
w: lu- * *|||||* * * * ia, _|_ _ _||
 A/B<cB/A- | A/G<Bc/B/A/4G/4 | G/F/4E/4F/E/4F/4 G2 | z G (3A2 G/F/ | (3:2:2G2 G (3A2 G/F/ | %124
w: |||al- * * *|le- * lu- * *|
[M:3/4] (3:2:2G2 G (3FA3/2G/ (3:2:4G3/2F/F/E/ |[M:2/4] G4- | G4 |] %127
w: |ia.|_|
V:2
 G12- | G4 A8 | G4 A6 G2 | B6 E4 DC | B,2 E3 D C2 B,4 | A,4 z2 E4 D2 | C2 B,A, G,2 C4 D2 | %7
w: Re-|* gi-|na _ _|cæ- * * *||li læ- *|* * * ta- * *|
 E3 D C2 B,2 C4 | B,2 E3 D G3 FFE | G4 z4 G4 | A3 G A2 F2 E4 | D2 B,4 G,2 A,2 B,2 | %12
w: |||||
 G,2 F,2 G,2 B,2 A,2 D2- | DC D4 B,2 A,4 | G,4 z2 B,4 C2 | D2 D4 CB, A,2 D2- | DE F2 GFED ^C3 B, | %17
w: ||re al- *|* le- * * * *||
 D12 | z4 z4 G4 | A6 GF E4 | D8 z2 G,2 | B,2 C2 D2 E4 DC | B,4 z4 A,4 | F,4 G,8 | A,6 D6 | %25
w: lu-|||ia, al-||le- *|||
 B,3 C D2 E3 D B,2 | D2 CB, A,3 G, B,2 A,2- | A,2 D4 C2 D4 | B,2 E3 D D3 ^CCB, | D8 B,4 | %30
w: ||||lu- *|
 A,4 z4 G,4- | G,4 A,4 D4 | B,3 C D2 E4 DC | B,2 B2 A2 G4 F2 | G4 z2 E2 D2 F2- | %35
w: ||||ia, Qui- * *|
 F2 G2 A2 G B2 A F2- | FGFE/D/ ^C2 z2 D4 | E2 D4 B,2 C2 D2 | G,4 A,2 B,2- B,CB,A,/G,/ | %39
w: ||||
 F,3 G, A,B,^C D2 C/B,/ C2 | D12 | z12 | z4 z4 A4 | F4 G4 A4 | z2 D2 E2 C4 B,2 | D4 G2 A2 B2 AG | %46
w: |a||quem|_ _ _|me- * * *|* ru- * i- * *|
 F6 D2 F2 G2 | E2 DC B,4 C4 | B,4 z4 E4 | A,6 D4 C2 | B,3 C D2 E3 F G2- | GF E3 D C2 B,4 | A,8 z4 | %53
w: ||sti por-||ta- * * * * *||re,|
 A4 F3 D D3 C | A,B, C4 D2 A,4 | B,6 G,2 G,4 | z4 G,4 F,2 A,2 | G,4 F,4 A,4- | A,4 G,8 | %59
w: al- * * le- *||||||
 A,4 D4 F2 G2 | A4 D4 A,4 | B,4 C8 | A,8 A4- | A12 |[M:2/2] z8 | C4 D4 | E4 D2 D2- | D^CCB, D4 | %68
w: lu- * * *||ia. _|_ _|||Iam sur-|re- * *|* * * * xit|
 z4 D4 |[M:3/2] G,4 A,4 G,4 |[M:2/2] C8 | (3:2:2B,4 A,8 | (3:2:2G,4 B,8 | (3:2:2C8 D4 | %74
w: si-|cut di- xit,|al-||le- *||
[M:2/4] G,4 | A,4- | A,2 B,2 |[M:3/4] G,2 F,2 G,2 | B,2 A,4 |[M:2/2] G,8 | F,4 z4 | C4 D4 | %82
w: lu-||||||ia,|al- *|
 E2 C2 B,4 | A,2 A2 =F3 G | A4 F2 D2- | D^CCB, D4 | G,2 B,3 A, A,2 | G,3 F, A,4 | z4 A4- | %89
w: |le- * * *|||lu- * * *|||
 A4 F2 A2 | (3G3 F E2- (3E2 E3 D | B, B,2 A, G, G,2 F, | A,4 z4 | D8 | B,3 C D2 E2 | C3 D E2 F2- | %96
w: |||ia.|O-|ra _ pro _|no- * * *|
 FD A3 B>AF | G>AFF/E/ D3 C/D/ | E/D/C/B,/A,D- D^CDF | EGFA- AD>EF | G/F/E/D<^CB,/ D4 | %101
w: ||||* * * * * * bis|
 z2 F2 G2 F2 | E2 D4 C2- | C2 B,2 A,4 | A4 F2 F2- | F2 D2 D4 |[M:2/4] F3 G | A2 FD | z A>FG | %109
w: De- * *||||* * um,|al- *|le- * *||
 A3 G/F/ | E3/2D/4E/4 =F/E/4F/4E/D/4C/4 | B,2 z E | E/F/G AB- | BA/G/ FG/A/- | %114
w: ||lu- *|||
 A/D/E/F/- F/4E/4D/^C/>B,/ | D2 z2 | z2 E2 | D>E F2 | G2 GF- | F/E/E z F- | F/G/F/E/4D/4 C/B,/C | %121
w: |ia,|al-|le- * *||||
 D2- (3:2:2D D2 | (3B,G, z (3CA,3/2G,/ | (3B,3/2A,/G, (3:2:2F,2 A,- | %124
w: |* * lu- * *||
[M:3/4] (3A,G,3/2F,/ (3:2:2A,2 A, D2- |[M:2/4] D E2 D | D4 |] %127
w: ||ia.|
V:3
 z12 | z12 | z12 | z12 | z12 | z12 | z12 | z12 | z12 | z12 | z12 | z12 | z12 | z12 | G12 | A12- | %16
w: ||||||||||||||Re-|gi-|
 A4 G8 | A8 B4- | B4 e6 d2 | d4 c6 B2 | B4 G2 B3 c d2- | d2 e2 d2 cB A4 | z2 G2 d3 e f3 g | %23
w: * na|cæ- li|_ læ- *|ta- * *||||
 f2 ed ^c2 B2 c4 | z2 d4 B2 A4 | G8 z4 | d8 e2 c2 | d4 G4 A4 | G4 z4 g4 | f2 a4 f2 g2 e2 | %30
w: ||re|||* al-|le- * * * *|
 A4 z2 A2 B3 G | B2 c2 d3 c A4 | G12 | z12 | G4 B3 c d3 c | B2 AG F2 G3 ABc | d4 e2 d4 B2 | %37
w: |* lu- * * *|ia,||Qui- * * * *|||
 c2 d2 G4 A2 B2- | BcBA/G/ F2 z f2 efg | a3 g f2 ed e4 | d4 z4 =f4- | f2 ed c3 d e2 f2 | %42
w: |||a quem|_ _ _ _ _ _ _|
 e2 a4 =f2 e4 | d4 e8 | d2 g4 fe fedc | B2 e3 d d4 ^c2 | d8 z4 | A4 G4 =F4 | z2 G4 A2 B2 c2 | %49
w: * me- * ru-||* i- * * * * * *||sti||por- * * *|
 d6 cB A4 | G4 z4 z4 | z12 | (3c3 d e2 (3f4 ed (3^c2 d3 B | d4 z2 f4 d2 | f2 e3 d d4 ^c2 | d8 z4 | %56
w: ta- * * *|re,||por- * * * * * ta- * *|re, al- *||le-|
 B4 c4 d4 | B2 c3 A A4 a2- | a2 gf gfed ^c3 B | d4 z2 a4 g2 | f2 d2 a2 f2 e4 | d4 e8 | d12- | d12 | %64
w: |||lu- * *||ia. _|_||
[M:2/2] z8 | z8 | z8 | z8 | z8 |[M:3/2] z12 |[M:2/2] z8 | z8 | z8 | z8 |[M:2/4] z4 | z4 | z4 | %77
w: |||||||||||||
[M:3/4] z6 | z6 |[M:2/2] z4 g4 | a4 b4 | a2 a3 ^ggf | a4 z4 | a4 d4 | e4 d4 | g4 f4 | e6 d2- | %87
w: ||Iam|sur- re-||xit|si- cut|di- xit,|al- *|le- *|
 d2 ^c2 d3 =c/B/ | A2 d3 ^ccB | d4 z2 d2 | B2 e3 f g2- | gfed c3 B | d3 c/B/ A2 G2 | F2 G2 A4 | %94
w: |lu- * * * *|ia, al-|le- lu- * *||||
 G8 | z4 x4 | z8 | z8 | z8 | z8 | z8 | d4 e2 f2 | g2 a3 f g2- | gf d2 e4 | z2 f3 d d2- | %105
w: ia.|||||||De- * *||||
 d2 =cB A4 |[M:2/4] d2 d2 | f>g ab | a>g fd | e2 d2 | z2 c2 | de c>A | cB Ad- | d/B/^c d2 | z2 dA | %115
w: * * * um,|al- le-||||lu-|||* * * ia,|al- *|
 BAd3/2c/4B/4 | A>B c2 | G2 z2 | d2 ec | dA>Bc | d2 G2 | A2 G2- | (3:2:2G B2 (3Ac3/2d/ | %123
w: * le- * * *|||||lu- *|||
 (3:2:4e3/2d/c/B/ (3:2:2A2 d |[M:3/4] (3:2:2B ^c2 d2 (3:2:2B A2 |[M:2/4] G4- | G4 |] %127
w: ||ia.|_|
V:4
 z12 | z12 | z12 | z12 | z12 | z12 | z12 | z12 | z12 | z12 | z12 | z12 | z12 | z12 | z12 | D,12- | %16
w: |||||||||||||||Re-|
 D,4 E,8 | D,12 | E,12 | F,8 z4 | G,12- | G,8 F,2 E,2 | G,4 F,4 D,4- | D,4 E,8 | D,12 | z4 z4 E,4 | %26
w: * gi-|na|cæ-|li|læ-|* ta- *|||||
 F,8 E,2 F,2 | D,4 E,4 D,4 | z2 G,4 F,2 E,4 | D,4 z4 E,4 | F,8 E,4 | E,4 D,8 | z12 | z12 | z12 | %35
w: |* * re|al- * le-|* lu-||ia, _||||
 z12 | z12 | z12 | z12 | z12 | D,12 | A,12- | A,12 | z4 z4 A,4 | B,4 A,8 | G,6 F,2 E,4 | D,12 | %47
w: |||||Qui-|a|_|quem|_ _|me- * ru-||
 z12 | E,12 | F,8 F,4 | G,8 G,4 | E,3 F, G,2 A,4 G,2 | A,4 D,4 E,4 | D,8 D,4 | z12 | G,12- | %56
w: |i-|* sti|por- ta-|||* re,||al-|
 G,4 E,4 D,4 | E,4 F,6 D,2 | F,4 E,6 D,2 | D,8 z4 | z12 | z4 C,8 | D,12- | D,12 |[M:2/2] z8 | z8 | %66
w: * le- *|||||lu-|ia.|_|||
 z8 | z8 | z8 |[M:3/2] z12 |[M:2/2] z8 | z8 | z8 | z8 |[M:2/4] z4 | z4 | z4 |[M:3/4] z6 | z6 | %79
w: |||||||||||||
[M:2/2] z8 | z4 G,4 | A,4 B,4 | A,2 A,3 ^G,G,F, | A,4 z4 | A,4 D,4 | E,4 D,4 | G,6 F,2 | %87
w: |Iam|sur- re-||xit|si- cut|di- xit,|al- *|
 E,4 D,3 E, | F,2 G,2 A,4 | D,8 | E,8- | E,8 | D,8 | D,8 | z8 | A,8 | D,8 | E,4 F,2 G,2- | %98
w: le- * *|||lu-|||ia.||O-|ra|pro _ no-|
 G,2 F,2 E,2 D,2 | C,2 D,2 F,4 | E,4 D,4- | D,4 z4 | z8 | z8 | D,8- | D,8 |[M:2/4] D,4 | D,2 F,G, | %108
w: * * bis _|De- * *|||||um,|_|al-|le- * *|
 A,2 B,2 | A,2 z2 | A,4 | G,E, F,A,- | A,G, F,D, | E,2 D,2- | D,2 z2 | D,4 | F,>G, A,2 | z B,2 A, | %118
w: ||lu-|||* ia,|_|al-|le- * *|lu- *|
 G,>F, E,F,- | F,/G,<A,G,/F,- | F,E,/D,/ E,2 | D,2 z2 | E,2 F,2 | E,2 F,D, |[M:3/4] E,2 D,4 | %125
w: |||||||
[M:2/4] z G, G,2 | G,4 |] %127
w: |ia.|

